img/article-views.svg

<svg width="15" height="15" viewBox="0 0 15 15" fill="none" xmlns="http://www.w3.org/2000/svg">
<path fill-rule="evenodd" clip-rule="evenodd" d="M15 7.26196C15 7.26196 12 12.375 7.5 12.375C3 12.375 0 7.26196 0 7.26196C0 7.26196 3 2.625 7.5 2.625C12 2.625 15 7.26196 15 7.26196ZM7.5 4.875C8.94707 4.875 10.125 6.05325 10.125 7.50082C10.125 8.94757 8.94707 10.125 7.5 10.125C6.05293 10.125 4.875 8.95085 4.875 7.50082C4.875 6.05325 6.05293 4.875 7.5 4.875ZM7.49858 8.81285C8.22277 8.81285 8.80965 8.22181 8.80965 7.4967C8.80965 6.77104 8.22222 6.18 7.49858 6.18C6.77549 6.18 6.1875 6.76939 6.1875 7.4956C6.1875 8.22181 6.77549 8.81285 7.49858 8.81285Z" fill="#BCBFC2"/>
</svg>

<svg width="15" height="15" fill="none" xmlns="http://www.w3.org/2000/svg"><path fill-rule="evenodd" clip-rule="evenodd" d="M15 7.262s-3 5.113-7.5 5.113S0 7.262 0 7.262s3-4.637 7.5-4.637S15 7.262 15 7.262zM7.5 4.875a2.629 2.629 0 012.625 2.626A2.626 2.626 0 117.5 4.875zm-.001 3.938c.724 0 1.31-.591 1.31-1.316 0-.726-.587-1.317-1.31-1.317-.724 0-1.311.59-1.311 1.316 0 .726.587 1.317 1.31 1.317z" fill="#BCBFC2"/></svg>
